assets/icons/hands-helping-solid.svg

<svg viewBox="0 0 640 511.96" xmlns="http://www.w3.org/2000/svg"><path d="m488 192h-152v56a72 72 0 0 1 -144 0v-121.6l-64.9 39a63.86 63.86 0 0 0 -31.1 54.8v47.3l-80 46.2a31.92 31.92 0 0 0 -11.7 43.7l80 138.6a32 32 0 0 0 43.7 11.7l103.4-59.7h136.6a64.06 64.06 0 0 0 64-64h16a32 32 0 0 0 32-32v-64h8a23.94 23.94 0 0 0 24-24v-48a23.94 23.94 0 0 0 -24-24zm147.7-37.4-80-138.6a32 32 0 0 0 -43.7-11.7l-103.4 59.7h-102.2a64.48 64.48 0 0 0 -33.9 9.7l-33.5 20.9a31.78 31.78 0 0 0 -15 27.1v126.3a40 40 0 0 0 80 0v-88h184a56 56 0 0 1 56 56v28.5l80-46.2a32 32 0 0 0 11.7-43.7z" fill="#21597f" transform="translate(.02 -.02)"/></svg>

<svg id="Ebene_1" data-name="Ebene 1" xmlns="http://www.w3.org/2000/svg" viewBox="0 0 640 511.96"><defs><style>.cls-1{fill:#21597f;}</style></defs><path class="cls-1" d="M488,192H336v56a72,72,0,0,1-144,0V126.4l-64.9,39A63.86,63.86,0,0,0,96,220.2v47.3L16,313.7A31.92,31.92,0,0,0,4.3,357.4L84.3,496A32,32,0,0,0,128,507.7L231.4,448H368a64.06,64.06,0,0,0,64-64h16a32,32,0,0,0,32-32V288h8a23.94,23.94,0,0,0,24-24V216A23.94,23.94,0,0,0,488,192Zm147.7-37.4L555.7,16A32,32,0,0,0,512,4.3L408.6,64H306.4a64.48,64.48,0,0,0-33.9,9.7L239,94.6a31.78,31.78,0,0,0-15,27.1V248a40,40,0,0,0,80,0V160H488a56,56,0,0,1,56,56v28.5l80-46.2A32,32,0,0,0,635.7,154.6Z" transform="translate(0.02 -0.02)"/></svg>
